X:279
T: BRAUT WO IST DEIN KRAENZCHEN HIN
N: E0873A
O: Europa, Mitteleuropa, Deutschland, Schlesien, Breslau
R: Hochzeits -, Ehestands - Lied
M: 4/4
L: 1/8
K: F
 | c3BA2F2 | AGFEF4 |
EFGAB2B2 | A2c2G4 |
c3BBAGF | B2d2c4 |
B3cA2F2 | AGFEF4

